icon-svg/ubiquiti-cam-flex.svg

<svg width="24" height="24" viewBox="0 0 24 24" fill="none" xmlns="http://www.w3.org/2000/svg">
<path fill-rule="evenodd" clip-rule="evenodd" d="M12.0548 2.51434C14.7666 2.56094 15.767 4.33098 15.9926 6.27478C16.2181 8.21858 15.9926 21.3352 15.9926 21.3352H7.69128L7.69127 6.02649C7.99152 4.27584 9.06217 2.46292 12.0548 2.51434ZM8.70954 8.5901V5.7232C8.70954 5.17372 9.82403 3.39779 11.8828 3.39779C13.7235 3.39779 14.9706 5.17372 14.9706 5.7232V8.5901C14.9706 9.24256 13.8361 10.9222 11.8828 10.9222C10.0915 10.9222 8.70954 9.17217 8.70954 8.5901ZM7.89389 16.2075C7.89389 16.2661 7.9414 16.3136 8.00002 16.3136H15.7235C15.7821 16.3136 15.8296 16.2661 15.8296 16.2075C15.8296 16.1489 15.7821 16.1013 15.7235 16.1013H8.00002C7.9414 16.1013 7.89389 16.1489 7.89389 16.2075Z" fill="#44739E"/>
</svg>

<svg xmlns="http://www.w3.org/2000/svg" fill="none" viewBox="0 0 24 24"><path fill="#44739e" fill-rule="evenodd" d="M12.0548 2.5143c2.7118.0466 3.7122 1.8167 3.9378 3.7605.2255 1.9438 0 15.0604 0 15.0604H7.6913V6.0265c.3002-1.7507 1.3709-3.5636 4.3635-3.5122M8.7095 8.5901V5.7232c0-.5495 1.1145-2.3254 3.1733-2.3254 1.8407 0 3.0878 1.776 3.0878 2.3254v2.8669c0 .6525-1.1345 2.3321-3.0878 2.3321-1.7913 0-3.1733-1.75-3.1733-2.3321m-.8156 7.6174c0 .0586.0475.1061.1061.1061h7.7235a.1061.1061 0 1 0 0-.2123H8a.106.106 0 0 0-.1061.1062" clip-rule="evenodd"/></svg>
